X: 42382
T: Wellerman, The
R: polka
M: 2/4
K: Eminor
B2|E2 EE E2 GG|B2 B2 B2 BB|c2 AA A2 cc|ee B2 B2
B2|E2 FF G2 AA|B2 B2 B2 BB|c2 A2 GG F2|E6 z2|
e4 e2>c2|dd G2 G2>G2|c2 A2 AB c2|B2 G2 E4|
e4 e2 dc|dd G2 G2 G2|B2 A2 G2 F2|E5 z2:|

